test_cases/cms32/hd2Kodak2383_CUSPclip_Resolve33.cube
LUT_3D_SIZE 5
0.025918 0.030926 0.033124
0.178299 0.067295 0.028086
0.387852 0.073030 0.000000
0.525739 0.092132 0.000000
0.595310 0.111115 0.000000
0.000000 0.159018 0.080315
0.243571 0.212876 0.024339
0.522423 0.260139 0.000000
0.669095 0.288011 0.000000
0.730647 0.299269 0.000000
0.000000 0.361660 0.172595
0.256789 0.411762 0.000000
0.613129 0.499389 0.000000
0.761702 0.530464 0.004645
0.823876 0.542407 0.010284
0.000046 0.485848 0.240717
0.237536 0.549909 0.000000
0.664208 0.661431 0.000000
0.812744 0.688628 0.023767
0.874075 0.694150 0.039669
0.027928 0.537205 0.261634
0.246883 0.619622 0.000000
0.687665 0.738132 0.002249
0.837130 0.765423 0.051151
0.897839 0.770283 0.067891
0.000040 0.032504 0.168796
0.180735 0.065244 0.197983
0.398487 0.035376 0.203440
0.540166 0.000000 0.204556
0.612143 0.000000 0.204218
0.000000 0.232159 0.280468
0.222805 0.237086 0.263849
0.523563 0.271489 0.267832
0.682141 0.273814 0.262589
0.757096 0.269418 0.258618
0.007588 0.449815 0.393804
0.178302 0.452495 0.300375
0.597112 0.519067 0.290068
0.776122 0.539021 0.279032
0.857398 0.543390 0.269658
0.021019 0.550563 0.432864
0.094180 0.591627 0.317149
0.626934 0.679417 0.288514
0.821231 0.708839 0.267278
0.907823 0.717162 0.250471
0.009193 0.598294 0.454707
0.029285 0.660130 0.332352
0.637886 0.757555 0.287466
0.840288 0.794060 0.260324
0.930023 0.805088 0.233463
0.000000 0.138896 0.355361
0.185822 0.010747 0.370923
0.411030 0.000000 0.392021
0.552253 0.000000 0.399709
0.625394 0.000000 0.404185
0.000000 0.327491 0.484770
0.180335 0.260535 0.477292
0.523644 0.294957 0.500363
0.684340 0.294478 0.504459
0.759119 0.287581 0.504585
0.000000 0.504102 0.575894
0.051126 0.500818 0.551426
0.578214 0.559170 0.563274
0.764098 0.576865 0.566222
0.848535 0.581872 0.566522
0.000000 0.612030 0.625559
0.000017 0.653215 0.593461
0.593435 0.723972 0.586959
0.799422 0.751984 0.588071
0.891431 0.761764 0.589076
0.000000 0.660036 0.647413
0.000017 0.722198 0.616106
0.597473 0.804430 0.601875
0.813055 0.837871 0.601939
0.908375 0.849462 0.599874
0.000000 0.224009 0.459936
0.187232 0.000000 0.472246
0.420813 0.000000 0.505575
0.562466 0.000000 0.515497
0.633683 0.000000 0.518568
0.000000 0.363156 0.569905
0.154500 0.272557 0.600387
0.519912 0.300729 0.633621
0.685258 0.302725 0.642869
0.761928 0.297391 0.644099
0.000000 0.521686 0.656241
0.001931 0.527436 0.687519
0.563727 0.576889 0.710974
0.755724 0.593754 0.719015
0.841617 0.596722 0.719764
0.000000 0.626978 0.707880
0.000017 0.684732 0.733939
0.567357 0.744182 0.741828
0.784745 0.773149 0.749683
0.879658 0.782141 0.751572
0.024670 0.677114 0.732154
0.000008 0.754434 0.758083
0.566501 0.825871 0.758852
0.794500 0.860309 0.764694
0.893427 0.872486 0.765511
0.000000 0.252173 0.506580
0.192995 0.000000 0.534162
0.425088 0.000000 0.570049
0.569066 0.000000 0.583165
0.641051 0.000000 0.587118
0.000000 0.382704 0.617067
0.139869 0.280525 0.670382
0.515889 0.300676 0.708816
0.684581 0.303955 0.720777
0.763297 0.300276 0.724033
0.008368 0.538103 0.705523
0.006519 0.537741 0.756407
0.554222 0.583461 0.793917
0.750654 0.602276 0.804293
0.837857 0.604909 0.805887
0.000000 0.632234 0.748202
0.002963 0.696061 0.799399
0.552796 0.753606 0.828992
0.775450 0.782360 0.839197
0.871455 0.790509 0.841126
0.037528 0.682749 0.773119
0.001462 0.763935 0.821823
0.548052 0.836285 0.845742
0.782435 0.869900 0.854210
0.883796 0.882072 0.856983
