test_cases/cms32/hd2Kodak2383_CUSPclip_Resolve33.cube
LUT_3D_SIZE 9
0.025918 0.030926 0.033124
0.087961 0.047883 0.036127
0.178299 0.067295 0.028086
0.286348 0.074173 0.000000
0.387852 0.073030 0.000000
0.468676 0.080444 0.000000
0.525739 0.092132 0.000000
0.567594 0.099285 0.000000
0.595310 0.111115 0.000000
0.000025 0.082862 0.052220
0.106185 0.106033 0.054532
0.215533 0.127718 0.038899
0.346817 0.143453 0.000000
0.465842 0.156489 0.000000
0.551793 0.167969 0.000000
0.609010 0.175073 0.000000
0.648520 0.180484 0.000000
0.674093 0.190269 0.000000
0.000000 0.159018 0.080315
0.096515 0.181981 0.061036
0.243571 0.212876 0.024339
0.391943 0.238306 0.000000
0.522423 0.260139 0.000000
0.612893 0.275487 0.000000
0.669095 0.288011 0.000000
0.707556 0.295025 0.000000
0.730647 0.299269 0.000000
0.000000 0.260030 0.123951
0.022543 0.267559 0.051225
0.260112 0.313256 0.000027
0.435693 0.353976 0.000000
0.573225 0.380765 0.000000
0.663663 0.398880 0.000000
0.720300 0.411933 0.000000
0.758822 0.418821 0.000000
0.781489 0.422293 0.003068
0.000000 0.361660 0.172595
0.014161 0.362224 0.059054
0.256789 0.411762 0.000000
0.467451 0.466358 0.000000
0.613129 0.499389 0.000000
0.705301 0.518437 0.000000
0.761702 0.530464 0.004645
0.799767 0.539227 0.020003
0.823876 0.542407 0.010284
0.000029 0.441792 0.222220
0.000001 0.440737 0.087192
0.237897 0.491787 0.000000
0.489156 0.555509 0.000000
0.643635 0.594780 0.000000
0.735749 0.613744 0.000000
0.791853 0.624521 0.020160
0.830209 0.630179 0.029307
0.853849 0.631367 0.010014
0.000046 0.485848 0.240717
0.000000 0.494171 0.102509
0.237536 0.549909 0.000000
0.505075 0.617673 0.000000
0.664208 0.661431 0.000000
0.758469 0.681882 0.001298
0.812744 0.688628 0.023767
0.850791 0.693123 0.040765
0.874075 0.694150 0.039669
0.010423 0.515810 0.252100
0.000000 0.535774 0.124567
0.242163 0.592101 0.000000
0.517653 0.662670 0.000000
0.679096 0.709386 0.000835
0.774525 0.730246 0.017029
0.828606 0.736373 0.036508
0.865159 0.738730 0.045157
0.888649 0.740099 0.054192
0.027928 0.537205 0.261634
0.000000 0.562448 0.138947
0.246883 0.619622 0.000000
0.527036 0.691033 0.000000
0.687665 0.738132 0.002249
0.783457 0.759626 0.036376
0.837130 0.765423 0.051151
0.873662 0.768027 0.060218
0.897839 0.770283 0.067891
0.018445 0.036511 0.090158
0.089659 0.053262 0.098105
0.177888 0.068742 0.102014
0.289674 0.073231 0.101127
0.393233 0.054482 0.093113
0.473395 0.005801 0.082013
0.531831 0.000000 0.074006
0.574892 0.000000 0.067602
0.604500 0.000000 0.062639
0.000000 0.098518 0.118446
0.097275 0.113662 0.121599
0.218027 0.137208 0.125809
0.349699 0.151087 0.120294
0.469181 0.151390 0.108121
0.556940 0.143399 0.093698
0.615994 0.131563 0.077859
0.659346 0.118504 0.059912
0.688566 0.104170 0.036888
0.000000 0.182985 0.156005
0.051637 0.191448 0.140505
0.234560 0.221781 0.138047
0.394313 0.249001 0.127730
0.525224 0.260815 0.111657
0.617875 0.262134 0.090534
0.680212 0.260730 0.058138
0.724860 0.258033 0.035364
0.754478 0.256367 0.030368
0.000000 0.293816 0.210254
0.014806 0.288180 0.160133
0.233090 0.323043 0.144029
0.427901 0.360835 0.124376
0.571834 0.381285 0.090957
0.670532 0.389502 0.037515
0.735934 0.393947 0.026231
0.782922 0.396936 0.025505
0.812844 0.398666 0.024277
0.001037 0.405256 0.272182
0.000000 0.394215 0.190952
0.207121 0.427045 0.134840
0.453455 0.474532 0.091273
0.607445 0.499721 0.027533
0.710502 0.511871 0.025236
0.777469 0.519230 0.022477
0.824511 0.524313 0.021625
0.853677 0.527367 0.020183
0.024157 0.469413 0.301908
0.000000 0.478785 0.224394
0.201328 0.507813 0.115651
0.467010 0.561581 0.038014
0.631562 0.593685 0.024717
0.738517 0.609743 0.020626
0.806760 0.618572 0.015597
0.854011 0.624416 0.014357
0.883407 0.628272 0.012262
0.039343 0.511274 0.318862
0.006329 0.535533 0.249561
0.186963 0.562866 0.080650
0.471613 0.621421 0.026150
0.646131 0.659381 0.021028
0.757856 0.679677 0.015346
0.826867 0.690186 0.000008
0.873956 0.696312 0.000004
0.902938 0.700126 0.000004
0.020763 0.540053 0.329546
0.006500 0.576655 0.271256
0.177587 0.603176 0.065693
0.474975 0.664995 0.026222
0.656363 0.706950 0.020589
0.770980 0.730053 0.014172
0.840490 0.741484 0.000004
0.887696 0.748613 0.000000
0.916373 0.752345 0.000000
0.024274 0.560299 0.339403
0.006786 0.599552 0.280001
0.166868 0.628630 0.068370
0.477560 0.692936 0.026345
0.662574 0.737000 0.019852
0.778580 0.761652 0.012190
0.847648 0.773253 0.000004
0.894361 0.780301 0.000000
0.923182 0.784266 0.000000
0.000040 0.032504 0.168796
0.089118 0.050988 0.185587
0.180735 0.065244 0.197983
0.289379 0.067313 0.201076
0.398487 0.035376 0.203440
0.482678 0.002169 0.205040
0.540166 0.000000 0.204556
0.583340 0.000000 0.204268
0.612143 0.000000 0.204218
0.000000 0.124342 0.219926
0.073088 0.123332 0.223136
0.213339 0.145029 0.235353
0.350638 0.158039 0.242632
0.472453 0.158509 0.241923
0.561514 0.150945 0.239154
0.622192 0.140534 0.238575
0.666139 0.129006 0.237375
0.696144 0.118250 0.235894
0.000000 0.232159 0.280468
0.022887 0.210651 0.255257
0.222805 0.237086 0.263849
0.387320 0.259858 0.268626
0.523563 0.271489 0.267832
0.619687 0.274949 0.265271
0.682141 0.273814 0.262589
0.727241 0.271415 0.260261
0.757096 0.269418 0.258618
0.000000 0.349226 0.343661
0.000000 0.324738 0.297997
0.200691 0.345150 0.284429
0.413929 0.377925 0.285982
0.565513 0.397215 0.284423
0.668911 0.406981 0.282130
0.734951 0.410287 0.278624
0.781947 0.411662 0.274808
0.812377 0.411597 0.271687
0.007588 0.449815 0.393804
0.000000 0.443881 0.350541
0.178302 0.452495 0.300375
0.434451 0.494808 0.295528
0.597112 0.519067 0.290068
0.705738 0.531836 0.284799
0.776122 0.539021 0.279032
0.825880 0.542844 0.273261
0.857398 0.543390 0.269658
0.011911 0.510324 0.417187
0.000000 0.528886 0.390668
0.151121 0.535098 0.311560
0.441578 0.583172 0.298294
0.616653 0.613453 0.289261
0.730705 0.629859 0.280277
0.804299 0.638891 0.271705
0.856009 0.643850 0.262884
0.888572 0.645197 0.258573
0.021019 0.550563 0.432864
0.009292 0.580045 0.410247
0.094180 0.591627 0.317149
0.439109 0.643553 0.299475
0.626934 0.679417 0.288514
0.746479 0.699326 0.277459
0.821231 0.708839 0.267278
0.874124 0.714712 0.255031
0.907823 0.717162 0.250471
0.020826 0.579604 0.445405
0.029156 0.614664 0.422556
0.062190 0.633028 0.324745
0.437099 0.687175 0.298988
0.633740 0.727081 0.285488
0.756808 0.749535 0.272330
0.833476 0.760638 0.259404
0.887172 0.767083 0.235279
0.921577 0.770178 0.232108
0.009193 0.598294 0.454707
0.040361 0.637326 0.432702
0.029285 0.660130 0.332352
0.438451 0.716172 0.302987
0.637886 0.757555 0.287466
0.762069 0.781281 0.273044
0.840288 0.794060 0.260324
0.894860 0.801405 0.237688
0.930023 0.805088 0.233463
0.000031 0.054181 0.259717
0.087888 0.021402 0.276353
0.183895 0.033298 0.294096
0.296432 0.028003 0.303301
0.406652 0.012868 0.309167
0.489919 0.000011 0.312593
0.546602 0.000000 0.313860
0.588783 0.000000 0.314900
0.617780 0.000000 0.316567
0.000000 0.182228 0.337120
0.047352 0.129335 0.325250
0.207096 0.147870 0.344958
0.355209 0.161304 0.358355
0.474993 0.160476 0.361943
0.563384 0.151757 0.362516
0.625825 0.142027 0.364146
0.671842 0.131863 0.365547
0.701463 0.120964 0.365487
0.018261 0.299141 0.409541
0.006947 0.242927 0.376785
0.199654 0.250708 0.383413
0.382265 0.272133 0.393879
0.524181 0.284814 0.398894
0.622257 0.289191 0.400949
0.684307 0.287285 0.400333
0.729048 0.283840 0.399889
0.758126 0.280403 0.399460
0.000312 0.395643 0.460447
0.000000 0.379017 0.442886
0.171501 0.369885 0.416668
0.406857 0.400611 0.424668
0.561751 0.416894 0.427883
0.665101 0.423569 0.427058
0.731490 0.426257 0.425857
0.778822 0.427583 0.425513
0.809776 0.428196 0.426707
0.000000 0.484899 0.503245
0.000000 0.498865 0.498402
0.128783 0.479767 0.444334
0.416232 0.517447 0.445843
0.588295 0.542546 0.448758
0.699489 0.554916 0.448471
0.770424 0.561506 0.446384
0.820623 0.565151 0.444617
0.852716 0.565870 0.444007
0.000000 0.547677 0.530842
0.000000 0.572075 0.523993
0.012339 0.564289 0.463468
0.414279 0.606889 0.458746
0.604106 0.638789 0.460622
0.722265 0.655537 0.460608
0.796101 0.663903 0.458052
0.847890 0.668427 0.455293
0.881131 0.669627 0.452984
0.000000 0.587427 0.546134
0.000000 0.619941 0.540447
0.000017 0.624418 0.476168
0.409557 0.669984 0.467250
0.611291 0.705542 0.466876
0.733696 0.724297 0.464992
0.809817 0.733717 0.462869
0.863109 0.739231 0.460520
0.898177 0.741738 0.458859
0.000000 0.615269 0.557305
0.000000 0.652805 0.552009
0.000017 0.667224 0.488077
0.405154 0.715787 0.473834
0.615302 0.753852 0.471991
0.740565 0.774067 0.468976
0.818571 0.784616 0.466439
0.873202 0.790766 0.464366
0.909436 0.794170 0.462960
0.000000 0.633119 0.565386
0.000000 0.673894 0.561408
0.000017 0.694435 0.496802
0.402201 0.744646 0.478939
0.617033 0.784274 0.477272
0.744577 0.806179 0.474516
0.824748 0.818329 0.471849
0.880682 0.825468 0.469467
0.917498 0.829375 0.467385
0.000000 0.138896 0.355361
0.089731 0.000000 0.350239
0.185822 0.010747 0.370923
0.303379 0.000000 0.384158
0.411030 0.000000 0.392021
0.493709 0.000000 0.396628
0.552253 0.000000 0.399709
0.595778 0.000000 0.402390
0.625394 0.000000 0.404185
0.000000 0.246797 0.431905
0.015771 0.135399 0.407620
0.201895 0.146291 0.431249
0.354405 0.158677 0.447101
0.476252 0.158316 0.453277
0.565600 0.149658 0.456111
0.628226 0.138754 0.458246
0.674296 0.126911 0.459786
0.704008 0.114133 0.460471
0.000000 0.327491 0.484770
0.000000 0.284716 0.474747
0.180335 0.260535 0.477292
0.381319 0.284071 0.493470
0.523644 0.294957 0.500363
0.621210 0.296453 0.503195
0.684340 0.294478 0.504459
0.729726 0.291112 0.505021
0.759119 0.287581 0.504585
0.003912 0.417920 0.532156
0.000078 0.418477 0.540602
0.139640 0.385205 0.518085
0.397228 0.412485 0.528631
0.557590 0.430840 0.537877
0.662078 0.437006 0.541230
0.729359 0.439051 0.540864
0.777140 0.439542 0.540071
0.807881 0.438869 0.539890
0.000000 0.504102 0.575894
0.000969 0.524727 0.587727
0.051126 0.500818 0.551426
0.398043 0.533301 0.555644
0.578214 0.559170 0.563274
0.691367 0.570567 0.565570
0.764098 0.576865 0.566222
0.815614 0.580602 0.566377
0.848535 0.581872 0.566522
0.000000 0.568406 0.605994
0.000000 0.600572 0.617955
0.005075 0.590090 0.575636
0.389920 0.626112 0.573459
0.588950 0.656793 0.577905
0.709763 0.672054 0.578988
0.786878 0.680952 0.580649
0.841068 0.686395 0.581571
0.875811 0.688925 0.581880
0.000000 0.612030 0.625559
0.000000 0.648509 0.634763
0.000017 0.653215 0.593461
0.379615 0.690198 0.583968
0.593435 0.723972 0.586959
0.719531 0.741813 0.587308
0.799422 0.751984 0.588071
0.855221 0.758345 0.588982
0.891431 0.761764 0.589076
0.000000 0.642677 0.639523
0.000000 0.681482 0.646570
0.000017 0.695520 0.606133
0.370098 0.736457 0.591841
0.595953 0.772802 0.594451
0.725817 0.792567 0.594762
0.807156 0.803554 0.594640
0.864511 0.810564 0.594753
0.901577 0.814501 0.594425
0.000000 0.660036 0.647413
0.000000 0.701382 0.654563
0.000017 0.722198 0.616106
0.361641 0.765394 0.598301
0.597473 0.804430 0.601875
0.730672 0.826083 0.603151
0.813055 0.837871 0.601939
0.870931 0.845299 0.601066
0.908375 0.849462 0.599874
0.000000 0.200680 0.421732
0.090770 0.000000 0.406586
0.186714 0.000005 0.428373
0.306001 0.000000 0.445190
0.415841 0.000000 0.456347
0.499297 0.000000 0.462298
0.558321 0.000000 0.465584
0.601587 0.000000 0.467763
0.631133 0.000000 0.469530
0.000000 0.273530 0.486711
0.012470 0.181952 0.478312
0.197692 0.144031 0.497036
0.353897 0.155405 0.515543
0.478421 0.154999 0.524251
0.568358 0.145878 0.528204
0.630332 0.132591 0.530232
0.675945 0.117707 0.531599
0.706052 0.102006 0.532639
0.000000 0.346328 0.532399
0.000000 0.318493 0.542185
0.166825 0.267962 0.547891
0.378659 0.290298 0.567684
0.521876 0.299452 0.576791
0.619887 0.299912 0.580881
0.684606 0.298876 0.583502
0.730741 0.296174 0.584552
0.760711 0.292909 0.584101
0.000003 0.436480 0.586220
0.000825 0.437420 0.601036
0.109293 0.395475 0.593164
0.386882 0.418980 0.607395
0.553107 0.439132 0.619696
0.659817 0.446777 0.625579
0.727910 0.448355 0.626306
0.775971 0.448002 0.625638
0.806621 0.446051 0.624504
0.000000 0.515383 0.623920
0.022427 0.540905 0.647140
0.005075 0.514885 0.628970
0.380999 0.543564 0.637639
0.569414 0.569773 0.647926
0.685330 0.581658 0.652562
0.759282 0.586960 0.654325
0.811402 0.589983 0.654975
0.844691 0.591174 0.655172
0.000000 0.578575 0.654231
0.003007 0.612298 0.675237
0.001279 0.608755 0.656508
0.366702 0.638506 0.657463
0.575977 0.668215 0.664550
0.700257 0.683535 0.667546
0.779790 0.692164 0.670712
0.835352 0.697484 0.672657
0.870939 0.700408 0.673775
0.000000 0.621554 0.674032
0.000000 0.661890 0.694449
0.000017 0.672741 0.676243
0.349224 0.702682 0.669503
0.578138 0.735820 0.675304
0.709122 0.754214 0.678071
0.791764 0.764943 0.680479
0.848949 0.771186 0.682174
0.885674 0.774669 0.682551
0.000000 0.652373 0.688364
0.000000 0.696703 0.708374
0.000017 0.715799 0.690405
0.334199 0.748916 0.678445
0.579369 0.785080 0.683996
0.714742 0.805609 0.686790
0.798758 0.817131 0.688335
0.857640 0.824514 0.689373
0.895070 0.828385 0.689173
0.004822 0.671846 0.698722
0.000000 0.718052 0.717718
0.000017 0.742452 0.700999
0.321778 0.778206 0.685703
0.580544 0.817474 0.692392
0.719060 0.839700 0.695583
0.803490 0.851619 0.695817
0.862635 0.859300 0.695927
0.900503 0.863532 0.695178
0.000000 0.224009 0.459936
0.089831 0.000000 0.449356
0.187232 0.000000 0.472246
0.307531 0.000000 0.491838
0.420813 0.000000 0.505575
0.505478 0.000000 0.512875
0.562466 0.000000 0.515497
0.604951 0.000000 0.517216
0.633683 0.000000 0.518568
0.000000 0.290119 0.524055
0.020583 0.218803 0.527411
0.194866 0.142087 0.546855
0.354875 0.152780 0.567885
0.480632 0.151439 0.578681
0.570766 0.140709 0.583469
0.632436 0.124429 0.585877
0.677767 0.101388 0.587236
0.707893 0.071621 0.588403
0.000000 0.363156 0.569905
0.000000 0.336323 0.586608
0.154500 0.272557 0.600387
0.373526 0.291976 0.622154
0.519912 0.300729 0.633621
0.619808 0.302606 0.639484
0.685258 0.302725 0.642869
0.731723 0.300445 0.644283
0.761928 0.297391 0.644099
0.000000 0.450477 0.624047
0.002171 0.449161 0.641555
0.086725 0.405188 0.649561
0.379283 0.424975 0.666820
0.549654 0.444592 0.679809
0.658201 0.453092 0.686348
0.726776 0.454989 0.688730
0.775249 0.454661 0.688756
0.806383 0.452752 0.688126
0.000000 0.521686 0.656241
0.045705 0.548032 0.683874
0.001931 0.527436 0.687519
0.367203 0.550442 0.698987
0.563727 0.576889 0.710974
0.682220 0.589835 0.717275
0.755724 0.593754 0.719015
0.808043 0.596080 0.719717
0.841617 0.596722 0.719764
0.000000 0.585575 0.688905
0.004610 0.617924 0.713145
0.000492 0.622158 0.714943
0.345253 0.645484 0.719675
0.567674 0.676059 0.729715
0.695510 0.692401 0.735326
0.774121 0.699430 0.737708
0.829929 0.704039 0.739327
0.865702 0.706237 0.739692
0.000000 0.626978 0.707880
0.007504 0.666955 0.732608
0.000017 0.684732 0.733939
0.322154 0.710588 0.733474
0.567357 0.744182 0.741828
0.701881 0.763029 0.746226
0.784745 0.773149 0.749683
0.842426 0.778994 0.751411
0.879658 0.782141 0.751572
0.006619 0.657352 0.721746
0.006189 0.702001 0.746949
0.000014 0.727886 0.748117
0.303717 0.757051 0.742950
0.567039 0.793494 0.750740
0.705925 0.814347 0.754781
0.790903 0.825637 0.757736
0.850554 0.832984 0.759229
0.888626 0.836671 0.759086
0.024670 0.677114 0.732154
0.000886 0.723301 0.756249
0.000008 0.754434 0.758083
0.288122 0.786697 0.750442
0.566501 0.825871 0.758852
0.708052 0.848095 0.762542
0.794500 0.860309 0.764694
0.854598 0.868117 0.765596
0.893427 0.872486 0.765511
0.000000 0.239347 0.486789
0.087960 0.000000 0.482406
0.189688 0.000000 0.506520
0.309342 0.000000 0.527610
0.424252 0.000000 0.542764
0.509698 0.000000 0.550952
0.567761 0.000000 0.554453
0.608834 0.000000 0.555790
0.637171 0.000000 0.556993
0.000000 0.305196 0.553450
0.030945 0.253608 0.563380
0.191995 0.139664 0.585457
0.355677 0.149860 0.608236
0.482162 0.147335 0.620422
0.572623 0.135072 0.626040
0.634502 0.116832 0.629026
0.679467 0.091858 0.630595
0.709558 0.053568 0.631725
0.000000 0.375151 0.597978
0.000000 0.350935 0.618456
0.146064 0.277110 0.640647
0.369782 0.292339 0.664002
0.518279 0.300716 0.677176
0.619285 0.303379 0.684089
0.685515 0.303894 0.688125
0.732444 0.302406 0.690004
0.762935 0.299546 0.690174
0.000000 0.460775 0.652720
0.001565 0.458346 0.672301
0.059678 0.412570 0.689099
0.373525 0.429844 0.712463
0.546587 0.448471 0.725829
0.656310 0.457082 0.732681
0.725699 0.459369 0.735689
0.774565 0.459490 0.736920
0.806207 0.458042 0.736806
0.000000 0.532059 0.686036
0.051227 0.552820 0.710409
0.012020 0.534748 0.727698
0.356671 0.555144 0.745986
0.558925 0.581471 0.759193
0.679003 0.594912 0.766340
0.753428 0.599477 0.768668
0.805435 0.600880 0.769353
0.839349 0.601283 0.769470
0.000000 0.589337 0.712703
0.009650 0.621981 0.740638
0.002997 0.629950 0.754495
0.329070 0.650003 0.767273
0.560931 0.681150 0.779423
0.690794 0.697983 0.786325
0.770575 0.705555 0.789259
0.825749 0.709036 0.790421
0.861791 0.710760 0.790564
0.000000 0.631460 0.733181
0.006189 0.669657 0.759683
0.000017 0.691948 0.772962
0.302296 0.715805 0.781591
0.559722 0.750076 0.792390
0.696460 0.769151 0.798308
0.780409 0.779353 0.802165
0.837466 0.784204 0.803491
0.874974 0.786994 0.803377
0.008067 0.660557 0.746188
0.013729 0.704270 0.773838
0.000014 0.734487 0.787008
0.279234 0.762903 0.792099
0.557792 0.799738 0.802021
0.698990 0.820540 0.807074
0.785120 0.831880 0.810492
0.844796 0.838816 0.812668
0.883307 0.842346 0.812538
0.030846 0.680488 0.756353
0.007205 0.725378 0.782852
0.000008 0.760920 0.796577
0.260162 0.792790 0.799528
0.556112 0.832075 0.809696
0.700040 0.854184 0.814209
0.787618 0.866399 0.816858
0.848301 0.874070 0.818736
0.887695 0.878411 0.818918
0.000000 0.252173 0.506580
0.085318 0.000000 0.507636
0.192995 0.000000 0.534162
0.313959 0.000000 0.555709
0.425088 0.000000 0.570049
0.509265 0.000000 0.578308
0.569066 0.000000 0.583165
0.611946 0.000000 0.585668
0.641051 0.000000 0.587118
0.000000 0.315408 0.573959
0.018410 0.261886 0.585164
0.190832 0.136985 0.613931
0.353931 0.145508 0.636912
0.481688 0.141754 0.649883
0.573468 0.129381 0.657184
0.636118 0.109309 0.661250
0.681329 0.084563 0.663205
0.711284 0.050889 0.664064
0.000000 0.382704 0.617067
0.000000 0.363705 0.640712
0.139869 0.280525 0.670382
0.366694 0.292790 0.695177
0.515889 0.300676 0.708816
0.617477 0.303401 0.716125
0.684581 0.303955 0.720777
0.732211 0.302674 0.723280
0.763297 0.300276 0.724033
0.000000 0.466148 0.672350
0.000538 0.466818 0.694646
0.015605 0.416413 0.718613
0.369331 0.433345 0.745055
0.543639 0.451176 0.759223
0.654038 0.459026 0.766512
0.724377 0.461613 0.770261
0.773939 0.462244 0.772008
0.806168 0.461648 0.772260
0.008368 0.538103 0.705523
0.029060 0.558293 0.732078
0.006519 0.537741 0.756407
0.349391 0.557511 0.779533
0.554222 0.583461 0.793917
0.675075 0.596567 0.801273
0.750654 0.602276 0.804293
0.803426 0.604381 0.805470
0.837857 0.604909 0.805887
0.002077 0.587202 0.723894
0.010350 0.626192 0.761670
0.004266 0.634713 0.782010
0.318298 0.652278 0.801625
0.554548 0.683475 0.815256
0.685091 0.699974 0.822174
0.766320 0.708536 0.825549
0.822400 0.712519 0.827125
0.858959 0.714053 0.827630
0.000000 0.632234 0.748202
0.000886 0.671496 0.779138
0.002963 0.696061 0.799399
0.288094 0.719266 0.816393
0.552796 0.753606 0.828992
0.690279 0.771965 0.835210
0.775450 0.782360 0.839197
0.833432 0.787730 0.840871
0.871455 0.790509 0.841126
0.010518 0.662820 0.763372
0.007205 0.704973 0.792343
0.000014 0.737666 0.812633
0.261317 0.767075 0.826945
0.550422 0.803934 0.838710
0.692685 0.823921 0.844339
0.779968 0.835265 0.847983
0.840451 0.842326 0.850360
0.879477 0.845937 0.850616
0.037528 0.682749 0.773119
0.007452 0.726049 0.800970
0.001462 0.763935 0.821823
0.236996 0.797103 0.833990
0.548052 0.836285 0.845742
0.693739 0.857768 0.851146
0.782435 0.869900 0.854210
0.843881 0.877653 0.856371
0.883796 0.882072 0.856983
