test_cases/cms32/hd2Kodak2383_CUSPclip_Resolve33.cube
LUT_3D_SIZE 33
0.025918 0.030926 0.033124
0.039393 0.033688 0.033734
0.057295 0.038748 0.034544
0.071892 0.042942 0.035466
0.087961 0.047883 0.036127
0.107324 0.053221 0.036219
0.125877 0.058229 0.035720
0.152890 0.062928 0.033682
0.178299 0.067295 0.028086
0.203616 0.070244 0.019374
0.235039 0.071405 0.005693
0.260532 0.072939 0.001904
0.286348 0.074173 0.000000
0.313691 0.072694 0.000000
0.340634 0.071738 0.000000
0.364217 0.072384 0.000000
0.387852 0.073030 0.000000
0.409133 0.073610 0.000000
0.430439 0.074190 0.000000
0.449582 0.077171 0.000000
0.468676 0.080444 0.000000
0.485099 0.083529 0.000000
0.499275 0.086815 0.000000
0.512539 0.089889 0.000000
0.525739 0.092132 0.000000
0.538020 0.093347 0.000000
0.550322 0.094565 0.000000
0.560292 0.096231 0.000000
0.567594 0.099285 0.000000
0.574860 0.102324 0.000000
0.582137 0.105368 0.000000
0.588710 0.108221 0.000000
0.595310 0.111115 0.000000
0.026229 0.043181 0.037791
0.040931 0.046333 0.038455
0.060288 0.050879 0.039533
0.076360 0.055238 0.040380
0.093926 0.060205 0.040826
0.114582 0.065679 0.040684
0.134812 0.071099 0.039558
0.162928 0.075921 0.037090
0.189968 0.080586 0.031242
0.216851 0.083977 0.022093
0.249660 0.085807 0.007420
0.276772 0.087437 0.002715
0.304259 0.088831 0.000000
0.332885 0.088507 0.000000
0.361325 0.088659 0.000000
0.386909 0.090186 0.000000
0.412224 0.091603 0.000000
0.433821 0.092463 0.000000
0.455443 0.093324 0.000000
0.474881 0.095522 0.000000
0.494270 0.097887 0.000000
0.510810 0.100452 0.000000
0.524777 0.103886 0.000000
0.537844 0.107098 0.000000
0.550903 0.110927 0.000000
0.563111 0.115162 0.000000
0.575340 0.119404 0.000000
0.585264 0.122380 0.000000
0.592566 0.123311 0.000000
0.599831 0.124237 0.000000
0.607109 0.125165 0.000000
0.613385 0.127799 0.000000
0.619607 0.130939 0.000000
0.018015 0.058376 0.043506
0.039126 0.062278 0.044287
0.062715 0.067634 0.046029
0.080690 0.072130 0.046592
0.100163 0.077099 0.046549
0.122041 0.082618 0.045960
0.143757 0.088246 0.044397
0.173151 0.093190 0.041273
0.201940 0.098220 0.035363
0.230508 0.102140 0.026056
0.264881 0.104737 0.010585
0.294066 0.107370 0.004280
0.323650 0.109861 0.000000
0.353379 0.110686 0.000000
0.383135 0.112035 0.000000
0.410548 0.114804 0.000000
0.437423 0.117286 0.000000
0.459420 0.118442 0.000000
0.481442 0.119599 0.000000
0.501440 0.123126 0.000000
0.521413 0.126946 0.000000
0.538326 0.130233 0.000000
0.552319 0.133073 0.000000
0.565411 0.135731 0.000000
0.578249 0.138313 0.000000
0.589990 0.140647 0.000000
0.601750 0.142984 0.000000
0.611346 0.144685 0.000000
0.618544 0.145405 0.000000
0.625707 0.146121 0.000000
0.632882 0.146838 0.000000
0.638848 0.147811 0.000000
0.644697 0.148876 0.000000
0.005064 0.069914 0.047626
0.032709 0.074694 0.048919
0.063187 0.080907 0.050711
0.082949 0.085583 0.050973
0.103460 0.090687 0.050612
0.126317 0.096149 0.049366
0.148354 0.101752 0.047666
0.179237 0.106820 0.043611
0.208916 0.111906 0.037050
0.238467 0.116133 0.027213
0.274626 0.119616 0.011128
0.304752 0.122691 0.004513
0.335186 0.125673 0.000000
0.365874 0.127666 0.000000
0.396448 0.130000 0.000000
0.424206 0.133136 0.000000
0.451469 0.135983 0.000000
0.473962 0.137459 0.000000
0.496481 0.138936 0.000000
0.516567 0.142415 0.000000
0.536583 0.146148 0.000000
0.553610 0.148945 0.000000
0.567876 0.150410 0.000000
0.581223 0.151781 0.000000
0.594177 0.153473 0.000000
0.605879 0.155397 0.000000
0.617600 0.157324 0.000000
0.627109 0.159279 0.000000
0.634095 0.161771 0.000000
0.641046 0.164251 0.000000
0.648009 0.166736 0.000000
0.653964 0.168495 0.000000
0.659852 0.170128 0.000000
0.000025 0.082862 0.052220
0.025092 0.087896 0.053515
0.061544 0.095234 0.055071
0.083769 0.100477 0.055136
0.106185 0.106033 0.054532
0.130242 0.111731 0.052940
0.152879 0.117272 0.051006
0.184577 0.122533 0.046464
0.215533 0.127718 0.038899
0.246175 0.132080 0.028307
0.282968 0.135855 0.012149
0.314702 0.139669 0.005031
0.346817 0.143453 0.000000
0.378109 0.145937 0.000000
0.409346 0.148857 0.000000
0.437884 0.152809 0.000000
0.465842 0.156489 0.000000
0.488644 0.158769 0.000000
0.511473 0.161051 0.000000
0.531678 0.164433 0.000000
0.551793 0.167969 0.000000
0.568836 0.170684 0.000000
0.582957 0.172280 0.000000
0.596168 0.173773 0.000000
0.609010 0.175073 0.000000
0.620633 0.176084 0.000000
0.632275 0.177097 0.000000
0.641688 0.178362 0.000000
0.648520 0.180484 0.000000
0.655319 0.182597 0.000000
0.662129 0.184712 0.000000
0.668120 0.187380 0.000000
0.674093 0.190269 0.000000
0.000021 0.098375 0.057365
0.019433 0.103229 0.057960
0.056010 0.111146 0.058906
0.082961 0.117481 0.058584
0.107294 0.123522 0.057594
0.134101 0.129841 0.055232
0.157495 0.135502 0.053046
0.191153 0.141227 0.047332
0.223034 0.146575 0.038421
0.254490 0.151195 0.026914
0.292804 0.155672 0.010581
0.325050 0.159764 0.004213
0.357672 0.163894 0.000000
0.390418 0.167562 0.000000
0.422821 0.171429 0.000000
0.451591 0.175564 0.000000
0.479899 0.179814 0.000000
0.503445 0.184028 0.000000
0.527020 0.188248 0.000000
0.547394 0.191922 0.000000
0.567616 0.195573 0.000000
0.584616 0.198460 0.000000
0.598388 0.200369 0.000000
0.611273 0.202156 0.000000
0.623929 0.203730 0.000000
0.635527 0.204977 0.000000
0.647144 0.206226 0.000000
0.656434 0.207381 0.000000
0.662897 0.208614 0.000000
0.669327 0.209840 0.000000
0.675769 0.211068 0.000000
0.681627 0.213387 0.000000
0.687520 0.216049 0.000000
0.000000 0.114673 0.063731
0.012087 0.118542 0.062663
0.049450 0.126937 0.062286
0.078500 0.133816 0.061712
0.107190 0.141079 0.060276
0.134975 0.147558 0.057660
0.161803 0.153737 0.054439
0.195626 0.159532 0.048516
0.229499 0.165067 0.034352
0.262626 0.169852 0.018535
0.301036 0.174404 0.002409
0.334787 0.179400 0.000037
0.368991 0.184481 0.000000
0.401812 0.188215 0.000000
0.434582 0.192378 0.000000
0.464539 0.197453 0.000000
0.493806 0.202454 0.000000
0.517370 0.206644 0.000000
0.540963 0.210839 0.000000
0.561810 0.215058 0.000000
0.582560 0.219322 0.000000
0.599887 0.222605 0.000000
0.613652 0.224557 0.000000
0.626529 0.226384 0.000000
0.639118 0.228582 0.000000
0.650590 0.231033 0.000000
0.662079 0.233488 0.000000
0.671285 0.235406 0.000000
0.677737 0.236615 0.000000
0.684157 0.237817 0.000000
0.690588 0.239022 0.000000
0.696139 0.240434 0.000000
0.701641 0.241940 0.000000
0.000000 0.136985 0.071564
0.002648 0.139323 0.067432
0.037419 0.147006 0.064819
0.070944 0.154009 0.062818
0.102528 0.161840 0.060868
0.137279 0.169687 0.057014
0.164282 0.175935 0.053585
0.202071 0.183322 0.042922
0.237055 0.189303 0.027435
0.270964 0.194644 0.013160
0.311760 0.200894 0.001728
0.345857 0.206136 0.000037
0.380295 0.211404 0.000000
0.414815 0.216491 0.000000
0.448877 0.221683 0.000000
0.478834 0.226758 0.000000
0.508188 0.231665 0.000000
0.532150 0.235422 0.000000
0.556141 0.239183 0.000000
0.577026 0.243361 0.000000
0.597777 0.247625 0.000000
0.615051 0.251215 0.000000
0.628648 0.254140 0.000000
0.641369 0.256876 0.000000
0.653872 0.259558 0.000000
0.665340 0.262009 0.000000
0.676826 0.264464 0.000000
0.685983 0.266250 0.000000
0.692276 0.267008 0.000000
0.698538 0.267763 0.000000
0.704811 0.268518 0.000000
0.710330 0.269842 0.000000
0.715832 0.271349 0.000000
0.000000 0.159018 0.080315
0.000000 0.160332 0.073607
0.022453 0.166619 0.067187
0.059365 0.173757 0.064273
0.096515 0.181981 0.061036
0.134382 0.190461 0.056424
0.167369 0.198003 0.050834
0.206263 0.205836 0.038842
0.243571 0.212876 0.024339
0.279395 0.219158 0.011638
0.320861 0.225879 0.001523
0.356216 0.232064 0.000029
0.391943 0.238306 0.000000
0.426939 0.243773 0.000000
0.461581 0.249371 0.000000
0.492373 0.254896 0.000000
0.522423 0.260139 0.000000
0.546497 0.263771 0.000000
0.570599 0.267407 0.000000
0.591801 0.271407 0.000000
0.612893 0.275487 0.000000
0.630367 0.279049 0.000000
0.643916 0.282250 0.000000
0.656593 0.285244 0.000000
0.669095 0.288011 0.000000
0.680606 0.290359 0.000000
0.692136 0.292710 0.000000
0.701307 0.294393 0.000000
0.707556 0.295025 0.000000
0.713774 0.295654 0.000000
0.720002 0.296283 0.000000
0.725351 0.297662 0.000000
0.730647 0.299269 0.000000
0.000000 0.181950 0.089913
0.000000 0.182510 0.080965
0.009864 0.187210 0.070418
0.042761 0.193501 0.064911
0.086117 0.202047 0.060083
0.130255 0.211044 0.053609
0.168338 0.219693 0.046219
0.209443 0.228287 0.033593
0.249067 0.236328 0.020052
0.286815 0.243562 0.009050
0.329794 0.251163 0.001184
0.366348 0.258211 0.000023
0.403139 0.265262 0.000000
0.438378 0.270974 0.000000
0.473388 0.276857 0.000000
0.504883 0.282762 0.000000
0.535490 0.288342 0.000000
0.559517 0.292124 0.000000
0.583572 0.295909 0.000000
0.605028 0.299787 0.000000
0.626409 0.303712 0.000000
0.644073 0.307185 0.000000
0.657650 0.310406 0.000000
0.670354 0.313420 0.000000
0.682889 0.316154 0.000000
0.694437 0.318413 0.000000
0.706004 0.320676 0.000000
0.715202 0.322301 0.000000
0.721460 0.322925 0.000000
0.727686 0.323546 0.000000
0.733923 0.324168 0.000000
0.739139 0.325611 0.000000
0.744261 0.327304 0.000000
0.000000 0.211383 0.102360
0.000000 0.211171 0.090986
0.001249 0.214105 0.076016
0.016395 0.217552 0.063916
0.066469 0.226481 0.057165
0.126771 0.236415 0.046064
0.165144 0.245166 0.038589
0.213016 0.256084 0.024022
0.254539 0.264777 0.009937
0.293799 0.272896 0.001184
0.341395 0.283199 0.000189
0.378618 0.290635 0.000023
0.415512 0.297784 0.000000
0.451494 0.304243 0.000000
0.487069 0.310695 0.000000
0.518563 0.316600 0.000000
0.549139 0.322282 0.000000
0.573022 0.326528 0.000000
0.596934 0.330780 0.000000
0.618380 0.334707 0.000000
0.639766 0.338636 0.000000
0.657459 0.342129 0.000000
0.671124 0.345407 0.000000
0.683909 0.348474 0.000000
0.696487 0.351234 0.000000
0.708035 0.353490 0.000000
0.719602 0.355750 0.000000
0.728808 0.357366 0.000000
0.735092 0.357966 0.000000
0.741345 0.358563 0.000000
0.747609 0.359161 0.000000
0.752829 0.360600 0.000000
0.757951 0.362293 0.000000
0.000000 0.235457 0.112964
0.000000 0.235014 0.099815
0.000000 0.236919 0.081588
0.006450 0.239234 0.066191
0.043879 0.246617 0.053955
0.109618 0.256960 0.041170
0.163844 0.267116 0.028509
0.212697 0.278365 0.013667
0.257561 0.288734 0.004359
0.299624 0.298316 0.000023
0.347889 0.309011 0.000023
0.386948 0.317431 0.000012
0.425689 0.325571 0.000000
0.461778 0.332139 0.000000
0.497646 0.338786 0.000000
0.529948 0.345123 0.000000
0.561171 0.351168 0.000000
0.585034 0.355485 0.000000
0.608925 0.359808 0.000000
0.630324 0.364097 0.000000
0.651660 0.368425 0.000000
0.669326 0.372170 0.000000
0.683003 0.375456 0.000000
0.695800 0.378531 0.000000
0.708375 0.381304 0.000000
0.719905 0.383579 0.000000
0.731453 0.385857 0.000000
0.740648 0.387483 0.000000
0.746936 0.388080 0.000000
0.753193 0.388674 0.000000
0.759460 0.389269 0.000000
0.764634 0.390505 0.000655
0.769695 0.391938 0.001494
0.000000 0.260030 0.123951
0.000000 0.259403 0.109072
0.000000 0.260440 0.087815
0.000000 0.261950 0.069624
0.022543 0.267559 0.051225
0.090244 0.277976 0.035741
0.161190 0.289609 0.017680
0.211586 0.301139 0.003918
0.260112 0.313256 0.000027
0.305108 0.324344 0.000000
0.354017 0.335346 0.000000
0.395001 0.344787 0.000000
0.435693 0.353976 0.000000
0.471946 0.360683 0.000000
0.508160 0.367555 0.000000
0.541313 0.374347 0.000000
0.573225 0.380765 0.000000
0.597112 0.385113 0.000000
0.621026 0.389466 0.000000
0.642380 0.394133 0.000000
0.663663 0.398880 0.000000
0.681292 0.402876 0.000000
0.694957 0.406126 0.000000
0.707742 0.409168 0.000000
0.720300 0.411933 0.000000
0.731810 0.414228 0.000000
0.743338 0.416526 0.000000
0.752523 0.418179 0.000000
0.758822 0.418821 0.000000
0.765089 0.419461 0.000000
0.771366 0.420102 0.000000
0.776492 0.421133 0.001345
0.781489 0.422293 0.003068
0.000000 0.286978 0.136436
0.000000 0.285924 0.119884
0.000000 0.286578 0.096629
0.000000 0.287741 0.076056
0.018618 0.292710 0.052726
0.076872 0.301588 0.025379
0.148307 0.313314 0.007670
0.209919 0.326932 0.001726
0.261591 0.339634 0.000027
0.308120 0.351452 0.000000
0.361708 0.364682 0.000000
0.403370 0.374446 0.000000
0.444225 0.383773 0.000000
0.481665 0.391493 0.000000
0.518779 0.399136 0.000000
0.551928 0.405931 0.000000
0.583874 0.412395 0.000000
0.607927 0.416937 0.000000
0.632008 0.421485 0.000000
0.653378 0.426171 0.000000
0.674661 0.430918 0.000000
0.692261 0.434832 0.000000
0.705836 0.437826 0.000000
0.718536 0.440626 0.000000
0.731048 0.443264 0.000000
0.742555 0.445559 0.000000
0.754081 0.447857 0.000000
0.763286 0.449606 0.000000
0.769658 0.450582 0.000000
0.775999 0.451553 0.000000
0.782350 0.452525 0.000000
0.787492 0.453621 0.001345
0.792491 0.454781 0.003068
0.000000 0.313729 0.148936
0.000000 0.312871 0.131632
0.000000 0.312956 0.106211
0.000000 0.313637 0.083079
0.015633 0.317631 0.054333
0.066324 0.325310 0.017888
0.136198 0.336965 0.000051
0.206338 0.352170 0.000051
0.261942 0.365676 0.000023
0.310933 0.378351 0.000000
0.368080 0.393276 0.000000
0.410956 0.403594 0.000000
0.452670 0.413351 0.000000
0.491012 0.421841 0.000000
0.528874 0.430113 0.000000
0.562258 0.437074 0.000000
0.594421 0.443704 0.000000
0.618601 0.448394 0.000000
0.642808 0.453089 0.000000
0.664257 0.457801 0.000000
0.685614 0.462561 0.000000
0.703239 0.466423 0.000000
0.716743 0.469220 0.000000
0.729378 0.471838 0.000000
0.741841 0.474408 0.000382
0.753317 0.476761 0.001145
0.764812 0.479118 0.001909
0.774014 0.480978 0.002396
0.780442 0.482207 0.002396
0.786839 0.483429 0.002396
0.793246 0.484654 0.002396
0.798465 0.485722 0.003090
0.803548 0.486784 0.003979
0.000000 0.337726 0.160462
0.000000 0.338866 0.145153
0.000000 0.337889 0.117254
0.000000 0.337729 0.091253
0.015631 0.339852 0.056117
0.064866 0.347419 0.019376
0.127327 0.358534 0.000023
0.197467 0.373739 0.000023
0.258974 0.388619 0.000010
0.312940 0.402454 0.000000
0.370086 0.417384 0.000000
0.415639 0.428883 0.000000
0.460173 0.439884 0.000000
0.498514 0.448374 0.000000
0.536615 0.456809 0.000000
0.570915 0.464396 0.000000
0.603815 0.471530 0.000000
0.627994 0.476220 0.000000
0.652202 0.480915 0.000000
0.673905 0.485672 0.000000
0.695545 0.490482 0.000000
0.713347 0.494375 0.000000
0.726849 0.497173 0.000000
0.739481 0.499790 0.000000
0.751887 0.502472 0.001847
0.763253 0.505050 0.005535
0.774637 0.507632 0.009229
0.783768 0.509636 0.011584
0.790197 0.510864 0.011584
0.796593 0.512087 0.011584
0.803000 0.513311 0.011584
0.808466 0.514084 0.009780
0.813866 0.514768 0.007471
0.000000 0.361660 0.172595
0.000000 0.364311 0.158480
0.000000 0.362469 0.128343
0.000000 0.361717 0.099961
0.014161 0.362224 0.059054
0.058689 0.369442 0.020575
0.115351 0.380136 0.000000
0.189423 0.395679 0.000000
0.256789 0.411762 0.000000
0.314982 0.426623 0.000000
0.372797 0.441838 0.000000
0.420605 0.454329 0.000000
0.467451 0.466358 0.000000
0.506083 0.475041 0.000000
0.544596 0.483755 0.000000
0.579633 0.491846 0.000000
0.613129 0.499389 0.000000
0.637313 0.504089 0.000000
0.661526 0.508794 0.000000
0.683432 0.513587 0.000000
0.705301 0.518437 0.000000
0.723241 0.522345 0.000186
0.736729 0.525115 0.000775
0.749348 0.527705 0.001325
0.761702 0.530464 0.004645
0.772978 0.533222 0.010690
0.784273 0.535985 0.016744
0.793345 0.538080 0.020468
0.799767 0.539227 0.020003
0.806157 0.540367 0.019540
0.812558 0.541510 0.019077
0.818221 0.542028 0.015170
0.823876 0.542407 0.010284
0.000000 0.382783 0.185662
0.000000 0.384978 0.169653
0.000000 0.383097 0.138408
0.000000 0.382735 0.109705
0.007416 0.382746 0.065941
0.035715 0.388774 0.020575
0.093175 0.399536 0.000000
0.185306 0.416631 0.000000
0.257737 0.433152 0.000000
0.316936 0.448437 0.000000
0.377826 0.464935 0.000000
0.426081 0.477612 0.000000
0.473114 0.489764 0.000000
0.513078 0.499335 0.000000
0.552605 0.508724 0.000000
0.587642 0.516816 0.000000
0.621143 0.524368 0.000000
0.645350 0.529113 0.000000
0.669585 0.533864 0.000000
0.691492 0.538660 0.000000
0.713358 0.543507 0.000000
0.731279 0.547372 0.001040
0.744712 0.550009 0.004332
0.757279 0.552477 0.007411
0.769605 0.555170 0.012075
0.780879 0.557928 0.018119
0.792172 0.560691 0.024174
0.801234 0.562676 0.027275
0.807625 0.563443 0.024673
0.813985 0.564207 0.022085
0.820356 0.564972 0.019492
0.826013 0.565417 0.015170
0.831668 0.565796 0.010284
0.000000 0.403931 0.198745
0.000000 0.405670 0.180840
0.000000 0.403749 0.148486
0.000000 0.403777 0.119461
0.000664 0.403293 0.072836
0.012713 0.408128 0.020575
0.070973 0.418959 0.000000
0.181185 0.437607 0.000000
0.258686 0.454568 0.000000
0.318893 0.470276 0.000000
0.382860 0.488059 0.000000
0.431565 0.500923 0.000000
0.478784 0.513197 0.000000
0.520083 0.523658 0.000000
0.560624 0.533723 0.000000
0.595661 0.541815 0.000000
0.629166 0.549377 0.000000
0.653396 0.554168 0.000000
0.677654 0.558964 0.000000
0.699561 0.563762 0.000000
0.721425 0.568607 0.000000
0.739327 0.572429 0.001896
0.752704 0.574934 0.007893
0.765220 0.577277 0.013504
0.777517 0.579905 0.019513
0.788789 0.582663 0.025558
0.800080 0.585426 0.031612
0.809132 0.587301 0.034090
0.815493 0.587689 0.029349
0.821823 0.588075 0.024632
0.828163 0.588462 0.019907
0.833815 0.588833 0.015170
0.839470 0.589212 0.010284
0.000014 0.422889 0.210498
0.004620 0.424932 0.192544
0.000000 0.422358 0.157401
0.000000 0.422465 0.127888
0.000003 0.422023 0.079966
0.006756 0.426614 0.025975
0.046162 0.436798 0.000000
0.158148 0.455597 0.000000
0.248925 0.473236 0.000000
0.319999 0.489522 0.000000
0.384266 0.507430 0.000000
0.434826 0.521176 0.000000
0.483971 0.534373 0.000000
0.525400 0.544921 0.000000
0.566271 0.555227 0.000000
0.602191 0.563989 0.000000
0.636408 0.572093 0.000000
0.660637 0.576888 0.000000
0.684896 0.581689 0.000000
0.706771 0.586426 0.000000
0.728601 0.591202 0.000000
0.746479 0.594976 0.001980
0.759851 0.597469 0.008241
0.772362 0.599800 0.014099
0.784690 0.602235 0.020202
0.796031 0.604622 0.026172
0.807390 0.607013 0.032151
0.816485 0.608640 0.034520
0.822843 0.608991 0.029571
0.829170 0.609340 0.024645
0.835508 0.609690 0.019712
0.841090 0.610001 0.014982
0.846658 0.610313 0.010157
0.000029 0.441792 0.222220
0.009790 0.444226 0.204419
0.000000 0.440926 0.166277
0.000000 0.441078 0.136252
0.000001 0.440737 0.087192
0.002602 0.445185 0.032018
0.020823 0.454637 0.000000
0.132818 0.473436 0.000000
0.237897 0.491787 0.000000
0.321022 0.508671 0.000000
0.385289 0.526580 0.000000
0.437876 0.541293 0.000000
0.489156 0.555509 0.000000
0.530585 0.566057 0.000000
0.571714 0.576559 0.000000
0.608622 0.586071 0.000000
0.643635 0.594780 0.000000
0.667862 0.599575 0.000000
0.692117 0.604376 0.000000
0.713958 0.609044 0.000000
0.735749 0.613744 0.000000
0.753603 0.617471 0.001980
0.766975 0.619963 0.008241
0.779486 0.622295 0.014099
0.791853 0.624521 0.020160
0.803271 0.626492 0.026046
0.814707 0.628467 0.031941
0.823850 0.629828 0.034257
0.830209 0.630179 0.029307
0.836536 0.630528 0.024382
0.842873 0.630878 0.019449
0.848380 0.631131 0.014772
0.853849 0.631367 0.010014
0.000039 0.456830 0.230659
0.014676 0.460246 0.214048
0.001673 0.456752 0.174075
0.000000 0.456707 0.142689
0.000000 0.456531 0.092563
0.000005 0.461137 0.035796
0.005001 0.470141 0.000000
0.117520 0.489164 0.000000
0.231688 0.508021 0.000000
0.322469 0.525324 0.000000
0.387099 0.543367 0.000000
0.441006 0.558705 0.000000
0.493646 0.573583 0.000000
0.535252 0.584316 0.000000
0.576676 0.595081 0.000000
0.614202 0.605063 0.000000
0.649736 0.614168 0.000000
0.674071 0.619048 0.000000
0.698435 0.623934 0.000000
0.720266 0.628567 0.000000
0.742032 0.633219 0.000000
0.759847 0.636866 0.002009
0.773142 0.639199 0.008362
0.785581 0.641382 0.014306
0.797933 0.643399 0.020386
0.809399 0.645111 0.026220
0.820884 0.646826 0.032063
0.830055 0.648020 0.034592
0.836402 0.648367 0.030490
0.842717 0.648713 0.026409
0.849042 0.649059 0.022320
0.854498 0.649274 0.017841
0.859905 0.649463 0.013126
0.000039 0.467005 0.234168
0.019904 0.472754 0.221016
0.006965 0.470087 0.181182
0.000000 0.469324 0.146508
0.000000 0.469474 0.095261
0.000005 0.474864 0.035796
0.005073 0.483894 0.000000
0.119231 0.503625 0.000000
0.233862 0.522678 0.000000
0.325022 0.540117 0.000000
0.390802 0.558587 0.000000
0.444875 0.573986 0.000000
0.497592 0.588945 0.000000
0.539756 0.600263 0.000000
0.581605 0.611472 0.000000
0.619131 0.621454 0.000000
0.654741 0.630618 0.000000
0.679423 0.635766 0.000000
0.704135 0.640921 0.000000
0.726000 0.645581 0.000000
0.747766 0.650233 0.000000
0.765504 0.653720 0.002100
0.778554 0.655551 0.008744
0.790764 0.657263 0.014961
0.802997 0.659032 0.021186
0.814464 0.660745 0.027019
0.825951 0.662462 0.032862
0.835112 0.663654 0.036173
0.841420 0.663988 0.034753
0.847697 0.664321 0.033340
0.853984 0.664654 0.031924
0.859431 0.664866 0.027966
0.864837 0.665055 0.023251
0.000039 0.476524 0.237450
0.024795 0.484457 0.227535
0.011916 0.482563 0.187832
0.000000 0.481128 0.150082
0.000000 0.481584 0.097786
0.000005 0.487706 0.035796
0.005141 0.496762 0.000000
0.120831 0.517155 0.000000
0.235895 0.536391 0.000000
0.327410 0.553959 0.000000
0.394266 0.572827 0.000000
0.448495 0.588284 0.000000
0.501283 0.603317 0.000000
0.543970 0.615183 0.000000
0.586216 0.626809 0.000000
0.623743 0.636791 0.000000
0.659423 0.646009 0.000000
0.684431 0.651408 0.000000
0.709468 0.656814 0.000000
0.731364 0.661499 0.000000
0.753131 0.666150 0.000000
0.770797 0.669489 0.002186
0.783618 0.670850 0.009102
0.795614 0.672122 0.015573
0.807734 0.673658 0.021933
0.819203 0.675373 0.027767
0.830691 0.677091 0.033610
0.839843 0.678280 0.037653
0.846116 0.678602 0.038741
0.852357 0.678923 0.039825
0.858608 0.679245 0.040910
0.864047 0.679455 0.037439
0.869452 0.679643 0.032723
0.000046 0.485848 0.240717
0.025319 0.495213 0.232578
0.018246 0.495384 0.195473
0.002551 0.493581 0.155862
0.000000 0.494171 0.102509
0.000005 0.500673 0.038625
0.005177 0.509694 0.000000
0.121682 0.530438 0.000000
0.237536 0.549909 0.000000
0.329710 0.567662 0.000000
0.397138 0.586740 0.000000
0.451838 0.602409 0.000000
0.505075 0.617673 0.000000
0.548040 0.629829 0.000000
0.590558 0.641742 0.000000
0.628309 0.651979 0.000000
0.664208 0.661431 0.000000
0.689388 0.666964 0.000000
0.714598 0.672503 0.000000
0.736602 0.677215 0.000613
0.758469 0.681882 0.001298
0.776159 0.685152 0.003959
0.788860 0.686262 0.011020
0.800744 0.687301 0.017626
0.812744 0.688628 0.023767
0.824096 0.690176 0.029021
0.835467 0.691727 0.034282
0.844538 0.692807 0.038343
0.850791 0.693123 0.040765
0.857013 0.693438 0.043175
0.863245 0.693753 0.045589
0.868676 0.693962 0.043257
0.874075 0.694150 0.039669
0.000062 0.494363 0.243758
0.021176 0.504273 0.235731
0.025632 0.507747 0.203671
0.007644 0.505918 0.163612
0.000000 0.506453 0.109261
0.000005 0.512936 0.044271
0.005177 0.521863 0.000000
0.121682 0.542603 0.000000
0.238653 0.562350 0.000000
0.331770 0.580336 0.000000
0.399197 0.599411 0.000000
0.454674 0.615441 0.000000
0.508728 0.631086 0.000000
0.551696 0.643242 0.000000
0.594332 0.655288 0.000000
0.632532 0.666032 0.000000
0.668793 0.675893 0.000000
0.693973 0.681426 0.000000
0.719184 0.686965 0.000000
0.741366 0.691705 0.001836
0.763434 0.696404 0.003891
0.781251 0.699693 0.007408
0.793954 0.700803 0.014469
0.805839 0.701842 0.021075
0.817722 0.703001 0.026636
0.828837 0.704213 0.030730
0.839971 0.705427 0.034830
0.848891 0.706294 0.038151
0.855144 0.706610 0.040573
0.861366 0.706924 0.042983
0.867598 0.707239 0.045397
0.873021 0.707448 0.044824
0.878410 0.707637 0.043487
0.000077 0.502892 0.246804
0.017027 0.513347 0.238888
0.033030 0.520129 0.211883
0.012744 0.518276 0.171374
0.000000 0.518755 0.116024
0.000005 0.525220 0.049927
0.005177 0.534051 0.000000
0.121682 0.554788 0.000000
0.239772 0.574812 0.000000
0.333832 0.593030 0.000000
0.401260 0.612102 0.000000
0.457513 0.628494 0.000000
0.512386 0.644521 0.000000
0.555357 0.656676 0.000000
0.598112 0.668854 0.000000
0.636762 0.680107 0.000000
0.673385 0.690378 0.000000
0.698566 0.695911 0.000000
0.723776 0.701450 0.000000
0.746138 0.706218 0.003061
0.768408 0.710948 0.006487
0.786350 0.714257 0.010862
0.799055 0.715368 0.017923
0.810942 0.716406 0.024529
0.822707 0.717397 0.029509
0.833586 0.718273 0.032442
0.844482 0.719150 0.035380
0.853251 0.719802 0.037959
0.859504 0.720118 0.040381
0.865726 0.720432 0.042791
